artwork/resources/intui/icons/shell/filetree/library-warning_dark.svg

<svg width="16" height="16" viewBox="0 0 16 16" fill="none" xmlns="http://www.w3.org/2000/svg">
<path fill-rule="evenodd" clip-rule="evenodd" d="M9 2C9.55229 2 10 2.44772 10 3V4H13C13.5523 4 14 4.44772 14 5V6.75777C13.6915 6.55127 13.356 6.3819 13 6.25606V5L10 5V6.25606C9.64397 6.3819 9.30851 6.55127 9 6.75777V4.5V4V3L6 3V5.5V6H5.5H2V13H7.75777C8.01056 13.3776 8.31899 13.7149 8.67133 14H2C1.44772 14 1 13.5523 1 13V6C1 5.44772 1.44771 5 2 5H5V3C5 2.44772 5.44771 2 6 2H9Z" fill="#CED0D6"/>
<mask id="path-2-inside-1_3_823" fill="white">
<path fill-rule="evenodd" clip-rule="evenodd" d="M15 10.5C15 12.433 13.433 14 11.5 14C9.567 14 8 12.433 8 10.5C8 8.567 9.567 7 11.5 7C13.433 7 15 8.567 15 10.5ZM12 12.5C12 12.7761 11.7761 13 11.5 13C11.2239 13 11 12.7761 11 12.5C11 12.2239 11.2239 12 11.5 12C11.7761 12 12 12.2239 12 12.5ZM11 10.5C11 10.7761 11.2239 11 11.5 11C11.7761 11 12 10.7761 12 10.5V8.5C12 8.22386 11.7761 8 11.5 8C11.2239 8 11 8.22386 11 8.5V10.5Z"/>
</mask>
<path fill-rule="evenodd" clip-rule="evenodd" d="M15 10.5C15 12.433 13.433 14 11.5 14C9.567 14 8 12.433 8 10.5C8 8.567 9.567 7 11.5 7C13.433 7 15 8.567 15 10.5ZM12 12.5C12 12.7761 11.7761 13 11.5 13C11.2239 13 11 12.7761 11 12.5C11 12.2239 11.2239 12 11.5 12C11.7761 12 12 12.2239 12 12.5ZM11 10.5C11 10.7761 11.2239 11 11.5 11C11.7761 11 12 10.7761 12 10.5V8.5C12 8.22386 11.7761 8 11.5 8C11.2239 8 11 8.22386 11 8.5V10.5Z" fill="#FCC75B"/>
<path d="M11.5 15C13.9853 15 16 12.9853 16 10.5H14C14 11.8807 12.8807 13 11.5 13V15ZM7 10.5C7 12.9853 9.01472 15 11.5 15V13C10.1193 13 9 11.8807 9 10.5H7ZM11.5 6C9.01472 6 7 8.01472 7 10.5H9C9 9.11929 10.1193 8 11.5 8V6ZM16 10.5C16 8.01472 13.9853 6 11.5 6V8C12.8807 8 14 9.11929 14 10.5H16ZM11.5 14C12.3284 14 13 13.3284 13 12.5H11C11 12.2239 11.2239 12 11.5 12V14ZM10 12.5C10 13.3284 10.6716 14 11.5 14V12C11.7761 12 12 12.2239 12 12.5H10ZM11.5 11C10.6716 11 10 11.6716 10 12.5H12C12 12.7761 11.7761 13 11.5 13V11ZM13 12.5C13 11.6716 12.3284 11 11.5 11V13C11.2239 13 11 12.7761 11 12.5H13ZM11.5 10C11.7761 10 12 10.2239 12 10.5H10C10 11.3284 10.6716 12 11.5 12V10ZM11 10.5C11 10.2239 11.2239 10 11.5 10V12C12.3284 12 13 11.3284 13 10.5H11ZM11 8.5V10.5H13V8.5H11ZM11.5 9C11.2239 9 11 8.77614 11 8.5H13C13 7.67157 12.3284 7 11.5 7V9ZM12 8.5C12 8.77614 11.7761 9 11.5 9V7C10.6716 7 10 7.67157 10 8.5H12ZM12 10.5V8.5H10V10.5H12Z" fill="#FCC75B" mask="url(#path-2-inside-1_3_823)"/>
<path d="M5.5 5.5V13.5" stroke="#CED0D6"/>
</svg>

<svg width="16" height="16" viewBox="0 0 16 16" fill="none" xmlns="http://www.w3.org/2000/svg"><path fill-rule="evenodd" clip-rule="evenodd" d="M9 2a1 1 0 0 1 1 1v1h3a1 1 0 0 1 1 1v1.758a4.485 4.485 0 0 0-1-.502V5h-3v1.256a4.484 4.484 0 0 0-1 .502V3H6v3H2v7h5.758c.253.378.561.715.913 1H2a1 1 0 0 1-1-1V6a1 1 0 0 1 1-1h3V3a1 1 0 0 1 1-1h3z" fill="#CED0D6"/><mask id="a" fill="#fff"><path fill-rule="evenodd" clip-rule="evenodd" d="M15 10.5a3.5 3.5 0 1 1-7 0 3.5 3.5 0 0 1 7 0zm-3 2a.5.5 0 1 1-1 0 .5.5 0 0 1 1 0zm-1-2a.5.5 0 0 0 1 0v-2a.5.5 0 0 0-1 0v2z"/></mask><path fill-rule="evenodd" clip-rule="evenodd" d="M15 10.5a3.5 3.5 0 1 1-7 0 3.5 3.5 0 0 1 7 0zm-3 2a.5.5 0 1 1-1 0 .5.5 0 0 1 1 0zm-1-2a.5.5 0 0 0 1 0v-2a.5.5 0 0 0-1 0v2z" fill="#FCC75B"/><path d="M11.5 15a4.5 4.5 0 0 0 4.5-4.5h-2a2.5 2.5 0 0 1-2.5 2.5v2zM7 10.5a4.5 4.5 0 0 0 4.5 4.5v-2A2.5 2.5 0 0 1 9 10.5H7zM11.5 6A4.5 4.5 0 0 0 7 10.5h2A2.5 2.5 0 0 1 11.5 8V6zm4.5 4.5A4.5 4.5 0 0 0 11.5 6v2a2.5 2.5 0 0 1 2.5 2.5h2zM11.5 14a1.5 1.5 0 0 0 1.5-1.5h-2a.5.5 0 0 1 .5-.5v2zM10 12.5a1.5 1.5 0 0 0 1.5 1.5v-2a.5.5 0 0 1 .5.5h-2zm1.5-1.5a1.5 1.5 0 0 0-1.5 1.5h2a.5.5 0 0 1-.5.5v-2zm1.5 1.5a1.5 1.5 0 0 0-1.5-1.5v2a.5.5 0 0 1-.5-.5h2zM11.5 10a.5.5 0 0 1 .5.5h-2a1.5 1.5 0 0 0 1.5 1.5v-2zm-.5.5a.5.5 0 0 1 .5-.5v2a1.5 1.5 0 0 0 1.5-1.5h-2zm0-2v2h2v-2h-2zm.5.5a.5.5 0 0 1-.5-.5h2A1.5 1.5 0 0 0 11.5 7v2zm.5-.5a.5.5 0 0 1-.5.5V7A1.5 1.5 0 0 0 10 8.5h2zm0 2v-2h-2v2h2z" fill="#FCC75B" mask="url(#a)"/><path d="M5.5 5.5v8" stroke="#CED0D6"/></svg>
